X:565
T:An dro
Z:abc transcription Simon Wascher
N:please mail errors to simon.wascher@chello.at
M:2/4
L:1/8
K:Gm
Gddc/d/|edcA/B/|cAdc/B/|A/B/G/A/BA|
Gddc/d/|edcA/B/|cAdc/B/|A/B/AG2:|
GGAB/A/|GGA3/B/|cAdc/B/|A/B/G/A/BA|
GGAB/A/|GGA3/B/|cAdc/B/|A/G/A/B/G2:|


